icons/line/device-tablet.svg

<svg width="24" height="24" viewBox="0 0 24 24" fill="none" xmlns="http://www.w3.org/2000/svg">
<path d="M11 18L13 18M19 19L19 5C19 3.89543 18.1046 3 17 3L7 3C5.89543 3 5 3.89543 5 5L5 19C5 20.1046 5.89543 21 7 21L17 21C18.1046 21 19 20.1046 19 19Z" stroke="currentColor" stroke-width="2" stroke-linecap="round" stroke-linejoin="round"/>
</svg>

<svg width="24" height="24" fill="none" xmlns="http://www.w3.org/2000/svg"><path d="M11 18h2m6 1V5a2 2 0 00-2-2H7a2 2 0 00-2 2v14a2 2 0 002 2h10a2 2 0 002-2z" stroke="currentColor" stroke-width="2" stroke-linecap="round" stroke-linejoin="round"/></svg>
